X: 0834
M: 6/8
L: 1/8
K: D
[|\
||\
d2f g2b | a2b afd | d2f g2b | afd e2f |\
d2f g2b | a2b afd | cBA ABc | def e2d |]

